assets/images/script/n-2-top.svg

<svg fill="none" height="240" viewBox="0 0 275 240" width="275" xmlns="http://www.w3.org/2000/svg"><path d="m45.467 143.795c-.2928-2.343 3.6475 1.779 5.7714 2.703 17.4404 7.583 40.2004 7.451 58.3716 2.995 14.427-3.538 37.004-14.123 39.888-30.902 2.562-14.907-9.586-24.2678-22.355-28.1266-38.0737-11.5057-83.1743-5.3916-121.272 3.3606-6.561149 1.5073-1.75932-1.9681 1.24195-4.1642 23.55135-17.2326 51.46325-28.7973 77.29255-42.0068 28.2795-14.4627 56.2445-30.416 85.9865-41.78768 13.175-5.037478 24.077-5.222026 32.875 7.15938 15.86 22.3223 22.346 54.0595 28.053 80.2149 6.953 31.8694 10.624 65.4294 7.817 98.0404-1.025 11.9-4.294 43.3-20.529 45.81-15.656 2.421-11.938-43.03-10.666-49.39 3.628-18.14 11.801-35.112 21.186-50.919 6.884-11.594 15.186-23.84 26.885-31.122 8.206-5.109 19.495-10.3118 14.318 2.63" stroke="#000" stroke-linecap="round" stroke-width="5"/></svg>

<svg width="275" height="240" viewBox="0 0 275 240" fill="none" xmlns="http://www.w3.org/2000/svg">
<path d="M45.467 143.795C45.1742 141.452 49.1145 145.574 51.2384 146.498C68.6788 154.081 91.4388 153.949 109.61 149.493C124.037 145.955 146.614 135.37 149.498 118.591C152.06 103.684 139.912 94.3232 127.143 90.4644C89.0693 78.9587 43.9687 85.0728 5.871 93.825C-0.690149 95.3323 4.11168 91.8569 7.11295 89.6608C30.6643 72.4282 58.5762 60.8635 84.4055 47.654C112.685 33.1913 140.65 17.238 170.392 5.86632C183.567 0.828842 194.469 0.644294 203.267 13.0257C219.127 35.348 225.613 67.0852 231.32 93.2406C238.273 125.11 241.944 158.67 239.137 191.281C238.112 203.181 234.843 234.581 218.608 237.091C202.952 239.512 206.67 194.061 207.942 187.701C211.57 169.561 219.743 152.589 229.128 136.782C236.012 125.188 244.314 112.942 256.013 105.66C264.219 100.551 275.508 95.3482 270.331 108.29" stroke="black" stroke-width="5" stroke-linecap="round"/>
</svg>
